X: 271
P: Longways for as many as will
M: C|
L: 1/8
K: D
[|\
(AB) (AD) | (E2 D6) |][|\
(ef)g2 (fg)a2 | g2f2 e2(dc) | d2(ef) g2f2 | e2d2 e2(dc) |\
(ef)g2 (fg)a2 | g2f2 e2(dc) | (Bc)d2 e2(dc) | d4- d4 |]

